X: 1052
T: Alyth Tattie Pickers
R: jig
M: 6/8
K: Gmajor
|:D|B,DG B2 G|E2 G D2 G|B,DG B2 G|A3A2 D|
B,DG B2 G|E2 G D2 c|BAG DEF|G3G2:|
|:D|GAB d2 D|GAB D2 D|GAB dcB|A3A2 D|
GAB ABc|d^cd ed=c|Bcd DEF|G3G2:|

